icons/device/microphone-slash.svg

<svg width="32" height="32" viewBox="0 0 32 32" fill="none" xmlns="http://www.w3.org/2000/svg">
<path fill-rule="evenodd" clip-rule="evenodd" d="M22.1536 23.5677L28.793 30.2071L30.2072 28.7929L3.20718 1.79289L1.79297 3.20711L11.0001 12.4142V17C11.0001 19.7614 13.2387 22 16.0001 22C17.2754 22 18.4392 21.5225 19.3225 20.7366L20.7384 22.1525C19.4917 23.2996 17.8277 24 16.0001 24C12.1341 24 9.00008 20.866 9.00008 17V15H7.00008V17C7.00008 21.6326 10.5001 25.4476 15.0001 25.9451V28H10.0001V30H22.0001V28H17.0001V25.9451C18.9835 25.7258 20.7727 24.862 22.1536 23.5677ZM17.9042 19.3184L13.0001 14.4142V17C13.0001 18.6569 14.3432 20 16.0001 20C16.723 20 17.3862 19.7443 17.9042 19.3184ZM25.0001 17C25.0001 17.8751 24.8752 18.721 24.6423 19.5209L22.9514 17.83C22.9835 17.5578 23.0001 17.2808 23.0001 17V15H25.0001V17ZM21.0001 7V15.8787L19.0001 13.8787V7C19.0001 5.34315 17.6569 4 16.0001 4C14.3432 4 13.0001 5.34315 13.0001 7V7.87868L11.1037 5.98232C11.5738 3.7089 13.5874 2 16.0001 2C18.7615 2 21.0001 4.23858 21.0001 7Z" fill="black"/>
</svg>

<svg viewBox="0 0 32 32" xmlns="http://www.w3.org/2000/svg"><path fill-rule="evenodd" d="M22.154 23.568l6.639 6.64 1.414-1.415-27-27-1.414 1.414L11 12.414V17a5 5 0 008.323 3.737l1.415 1.416A7 7 0 019 17v-2.001H7v2c0 4.633 3.5 8.448 8 8.945V28h-5v2h12v-2h-5v-2.055a8.969 8.969 0 005.154-2.377zm-4.25-4.25L13 14.414V17a3 3 0 004.904 2.318zM25 17c0 .875-.125 1.721-.358 2.52l-1.69-1.69c.031-.272.048-.55.048-.83v-2h2v2zM21 7v8.879l-2-2V7a3 3 0 00-6 0v.879l-1.896-1.897A5.002 5.002 0 0121 7z"/></svg>
